sources/design/Outline/acute.svg

<svg:svg xmlns:cc="http://creativecommons.org/ns#" xmlns:dc="http://purl.org/dc/elements/1.1/" xmlns:inkscape="http://www.inkscape.org/namespaces/inkscape" xmlns:rdf="http://www.w3.org/1999/02/22-rdf-syntax-ns#" xmlns:sodipodi="http://sodipodi.sourceforge.net/DTD/sodipodi-0.dtd" xmlns:svg="http://www.w3.org/2000/svg" xml:space="preserve" width="1000" height="1000" version="1.1" style="clip-rule:evenodd;fill-rule:evenodd;image-rendering:optimizeQuality;shape-rendering:geometricPrecision;text-rendering:geometricPrecision" viewBox="0 0 1000 1000" id="svg10" sodipodi:docname="acute.svg" inkscape:version="1.1.1 (3bf5ae0d25, 2021-09-20)"><svg:text text-anchor="middle" x="49.882637" y="91.169617" id="top" inkscape:label="top" style="clip-rule:evenodd;fill-rule:evenodd;image-rendering:optimizeQuality;shape-rendering:geometricPrecision;text-rendering:geometricPrecision">✛</svg:text><svg:metadata id="metadata14"><rdf:RDF><cc:Work rdf:about=""><dc:format>image/svg+xml</dc:format><dc:type rdf:resource="http://purl.org/dc/dcmitype/StillImage" /><dc:title /></cc:Work></rdf:RDF></svg:metadata><sodipodi:namedview pagecolor="#ffffff" bordercolor="#666666" borderopacity="1" objecttolerance="10" gridtolerance="10" guidetolerance="10" inkscape:pageopacity="0" inkscape:pageshadow="2" inkscape:window-width="1920" inkscape:window-height="1009" id="namedview12" showgrid="false" inkscape:zoom="1.9176736" inkscape:cx="231.26981" inkscape:cy="82.391498" inkscape:window-x="0" inkscape:window-y="60" inkscape:window-maximized="1" inkscape:current-layer="svg10" showguides="true" inkscape:guide-bbox="true" inkscape:document-rotation="0" inkscape:snap-to-guides="true" inkscape:pagecheckerboard="0"><sodipodi:guide position="0,1000" orientation="0,1" id="guide16" inkscape:label="" inkscape:locked="true" inkscape:color="rgb(0,0,255)" /><sodipodi:guide position="1763.3122,2036.1693" orientation="1000,0" id="guide18" /><sodipodi:guide position="0,200" orientation="0,1" id="guide20" inkscape:label="base" inkscape:locked="true" inkscape:color="rgb(0,0,255)" /><inkscape:grid type="xygrid" id="grid24" originx="-473.37552" originy="-489.69235" /><sodipodi:guide position="0,0" orientation="0,1" id="guide34" inkscape:label="bottom" inkscape:locked="true" inkscape:color="rgb(0,0,255)" /><sodipodi:guide position="225.05109,1693.3186" orientation="0,1" id="guide44" inkscape:label="" inkscape:locked="false" inkscape:color="rgb(0,0,255)" /><sodipodi:guide position="0,900" orientation="0,1" id="guide46" inkscape:label="" inkscape:locked="true" inkscape:color="rgb(0,0,255)" /><sodipodi:guide position="0,1000" orientation="0,1000" id="guide860" /><sodipodi:guide position="1000,1000" orientation="1000,0" id="guide862" /><sodipodi:guide position="1000,0" orientation="0,-1000" id="guide864" /><sodipodi:guide position="0,0" orientation="-1000,0" id="guide866" /><sodipodi:guide position="239.72983,1007.6402" orientation="-1,0" id="guide861" inkscape:label="width" inkscape:locked="false" inkscape:color="rgb(0,0,255)" /></sodipodi:namedview>
 <svg:defs id="defs4"><inkscape:path-effect effect="fillet_chamfer" id="path-effect861" is_visible="true" lpeversion="1" satellites_param="F,0,0,1,0,15.924213,0,1 @ F,0,0,1,0,15.950897,0,1 @ F,0,0,1,0,0,0,1 @ F,0,0,1,0,13.019511,0,1 @ F,0,0,1,0,14.104581,0,1 @ F,0,0,1,0,0,0,1" unit="px" method="auto" mode="F" radius="0" chamfer_steps="1" flexible="false" use_knot_distance="true" apply_no_radius="true" apply_with_radius="true" only_selected="true" hide_knots="false" /><inkscape:path-effect effect="spiro" id="path-effect864" is_visible="true" lpeversion="1" /><inkscape:path-effect effect="spiro" id="path-effect863" is_visible="true" lpeversion="1" /><inkscape:path-effect effect="spiro" id="path-effect873" is_visible="true" lpeversion="1" /><inkscape:path-effect effect="spiro" id="path-effect859" is_visible="true" lpeversion="1" /><inkscape:path-effect effect="spiro" id="path-effect862" is_visible="true" lpeversion="1" /><inkscape:path-effect effect="spiro" id="path-effect1521" is_visible="true" lpeversion="1" /><inkscape:path-effect effect="spiro" id="path-effect858" is_visible="true" lpeversion="1" /><inkscape:path-effect effect="spiro" id="path-effect854" is_visible="true" lpeversion="1" />
  <svg:style type="text/css" id="style2">
   
    .fil0 {fill:#EF7F1A;fill-rule:nonzero}
   
  </svg:style>
 <inkscape:path-effect effect="spiro" id="path-effect1214" is_visible="true" lpeversion="1" /><inkscape:path-effect effect="spiro" id="path-effect1195" is_visible="true" lpeversion="1" /><inkscape:path-effect effect="spiro" id="path-effect992" is_visible="true" lpeversion="1" /><inkscape:path-effect effect="spiro" id="path-effect287" is_visible="true" lpeversion="1" /><inkscape:path-effect effect="spiro" id="path-effect1032" is_visible="true" lpeversion="1" /><inkscape:path-effect effect="spiro" id="path-effect1218" is_visible="true" lpeversion="1" /><inkscape:path-effect effect="spiro" id="path-effect309" is_visible="true" lpeversion="1" /><inkscape:path-effect effect="spiro" id="path-effect1176" is_visible="true" lpeversion="1" /><inkscape:path-effect effect="spiro" id="path-effect1026" is_visible="true" lpeversion="1" /><inkscape:path-effect effect="spiro" id="path-effect1030" is_visible="true" lpeversion="1" /></svg:defs>
 
<svg:g id="path861"><svg:path style="color:#000000;clip-rule:nonzero;fill:#1a5fb4;fill-rule:nonzero;stroke-linecap:round;stroke-linejoin:round;-inkscape-stroke:none;paint-order:fill stroke markers;shape-rendering:auto" d="M 113.42773,-199.12891 C 105.32189,-199.09631 96.967491,-196.90430999999998 90.03125,-192.15039 C 78.933265,-184.54412 72.881789,-171.78778 71.957031,-159.97266 C 69.183868,-124.54146 60.407989,-89.50257199999999 46.126953,-56.984374999999986 C 30.708718,-21.876752999999987 8.772125600000003,10.491184000000018 -18.109375,37.865234000000015 C -25.544368,45.43645900000001 -32.068604,58.64069700000002 -28.974609,72.97851600000001 C -25.880614,87.31633400000001 -14.012018000000001,96.99402700000002 -3.8359375,100.63086000000001 L 72.978516,128.08398 C 93.5925,135.45122 110.50905,132.61894 127.19727,117.24609 C 153.61488,92.91072 177.40389,65.75374299999999 198.04102,36.347656 C 227.83827,-6.110795899999999 250.95332000000002,-53.148340000000005 266.39844,-102.64844 C 274.02938,-127.10485 260.35976,-152.43439 236.66602,-160.36523 L 127.39063,-196.94335999999998 C 123.06551,-198.39106999999998 118.29124,-199.14845999999997 113.42773,-199.12891 M 129.28516,-133.03710999999998 L 204.86133,-107.74022999999998 C 191.40828,-68.85028 172.55558,-31.783954 148.92969,1.8808594 C 131.65021,26.502586 111.75987,49.297103 89.84375,69.912109 C 90.141678,70.096135 90.684728,70.695102 93.171875,71.583984 L 89.480469,70.265625 C 88.486005,71.1989 87.549896,72.193225 86.546875,73.117187 C 88.835411,71.009034 88.968727,70.406737 89.210937,70.167969 L 46.986328,55.078125 C 68.900171,28.413873 87.165378,-1.2153573000000009 101.0625,-32.859375 C 115.07355,-64.76281 124.51689,-98.561337 129.28516,-133.03710999999998" id="path22265" /></svg:g></svg:svg>

<svg:svg xmlns:cc="http://creativecommons.org/ns#" xmlns:dc="http://purl.org/dc/elements/1.1/" xmlns:inkscape="http://www.inkscape.org/namespaces/inkscape" xmlns:rdf="http://www.w3.org/1999/02/22-rdf-syntax-ns#" xmlns:sodipodi="http://sodipodi.sourceforge.net/DTD/sodipodi-0.dtd" xmlns:svg="http://www.w3.org/2000/svg" xml:space="preserve" width="1000" height="1000" version="1.1" style="clip-rule:evenodd;fill-rule:evenodd;image-rendering:optimizeQuality;shape-rendering:geometricPrecision;text-rendering:geometricPrecision" viewBox="0 0 1000 1000" id="svg10" sodipodi:docname="acute.svg" inkscape:version="1.1.1 (3bf5ae0d25, 2021-09-20)"><svg:text text-anchor="middle" x="49.882637" y="91.169617" id="top" inkscape:label="top" style="clip-rule:evenodd;fill-rule:evenodd;image-rendering:optimizeQuality;shape-rendering:geometricPrecision;text-rendering:geometricPrecision">✛</svg:text><svg:metadata id="metadata14"><rdf:RDF><cc:Work rdf:about=""><dc:format>image/svg+xml</dc:format><dc:type rdf:resource="http://purl.org/dc/dcmitype/StillImage" /><dc:title /></cc:Work></rdf:RDF></svg:metadata><sodipodi:namedview pagecolor="#ffffff" bordercolor="#666666" borderopacity="1" objecttolerance="10" gridtolerance="10" guidetolerance="10" inkscape:pageopacity="0" inkscape:pageshadow="2" inkscape:window-width="1920" inkscape:window-height="1009" id="namedview12" showgrid="false" inkscape:zoom="1.9176736" inkscape:cx="231.26981" inkscape:cy="82.391498" inkscape:window-x="0" inkscape:window-y="60" inkscape:window-maximized="1" inkscape:current-layer="svg10" showguides="true" inkscape:guide-bbox="true" inkscape:document-rotation="0" inkscape:snap-to-guides="true" inkscape:pagecheckerboard="0"><sodipodi:guide position="0,1000" orientation="0,1" id="guide16" inkscape:label="" inkscape:locked="true" inkscape:color="rgb(0,0,255)" /><sodipodi:guide position="1763.3122,2036.1693" orientation="1000,0" id="guide18" /><sodipodi:guide position="0,200" orientation="0,1" id="guide20" inkscape:label="base" inkscape:locked="true" inkscape:color="rgb(0,0,255)" /><inkscape:grid type="xygrid" id="grid24" originx="-473.37552" originy="-489.69235" /><sodipodi:guide position="0,0" orientation="0,1" id="guide34" inkscape:label="bottom" inkscape:locked="true" inkscape:color="rgb(0,0,255)" /><sodipodi:guide position="225.05109,1693.3186" orientation="0,1" id="guide44" inkscape:label="" inkscape:locked="false" inkscape:color="rgb(0,0,255)" /><sodipodi:guide position="0,900" orientation="0,1" id="guide46" inkscape:label="" inkscape:locked="true" inkscape:color="rgb(0,0,255)" /><sodipodi:guide position="0,1000" orientation="0,1000" id="guide860" /><sodipodi:guide position="1000,1000" orientation="1000,0" id="guide862" /><sodipodi:guide position="1000,0" orientation="0,-1000" id="guide864" /><sodipodi:guide position="0,0" orientation="-1000,0" id="guide866" /><sodipodi:guide position="239.72983,1007.6402" orientation="-1,0" id="guide861" inkscape:label="width" inkscape:locked="false" inkscape:color="rgb(0,0,255)" /></sodipodi:namedview>
 <svg:defs id="defs4"><inkscape:path-effect effect="fillet_chamfer" id="path-effect861" is_visible="true" lpeversion="1" satellites_param="F,0,0,1,0,15.924213,0,1 @ F,0,0,1,0,15.950897,0,1 @ F,0,0,1,0,0,0,1 @ F,0,0,1,0,13.019511,0,1 @ F,0,0,1,0,14.104581,0,1 @ F,0,0,1,0,0,0,1" unit="px" method="auto" mode="F" radius="0" chamfer_steps="1" flexible="false" use_knot_distance="true" apply_no_radius="true" apply_with_radius="true" only_selected="true" hide_knots="false" /><inkscape:path-effect effect="spiro" id="path-effect864" is_visible="true" lpeversion="1" /><inkscape:path-effect effect="spiro" id="path-effect863" is_visible="true" lpeversion="1" /><inkscape:path-effect effect="spiro" id="path-effect873" is_visible="true" lpeversion="1" /><inkscape:path-effect effect="spiro" id="path-effect859" is_visible="true" lpeversion="1" /><inkscape:path-effect effect="spiro" id="path-effect862" is_visible="true" lpeversion="1" /><inkscape:path-effect effect="spiro" id="path-effect1521" is_visible="true" lpeversion="1" /><inkscape:path-effect effect="spiro" id="path-effect858" is_visible="true" lpeversion="1" /><inkscape:path-effect effect="spiro" id="path-effect854" is_visible="true" lpeversion="1" />
  <svg:style type="text/css" id="style2">
   
    .fil0 {fill:#EF7F1A;fill-rule:nonzero}
   
  </svg:style>
 <inkscape:path-effect effect="spiro" id="path-effect1214" is_visible="true" lpeversion="1" /><inkscape:path-effect effect="spiro" id="path-effect1195" is_visible="true" lpeversion="1" /><inkscape:path-effect effect="spiro" id="path-effect992" is_visible="true" lpeversion="1" /><inkscape:path-effect effect="spiro" id="path-effect287" is_visible="true" lpeversion="1" /><inkscape:path-effect effect="spiro" id="path-effect1032" is_visible="true" lpeversion="1" /><inkscape:path-effect effect="spiro" id="path-effect1218" is_visible="true" lpeversion="1" /><inkscape:path-effect effect="spiro" id="path-effect309" is_visible="true" lpeversion="1" /><inkscape:path-effect effect="spiro" id="path-effect1176" is_visible="true" lpeversion="1" /><inkscape:path-effect effect="spiro" id="path-effect1026" is_visible="true" lpeversion="1" /><inkscape:path-effect effect="spiro" id="path-effect1030" is_visible="true" lpeversion="1" /></svg:defs>
 
<svg:g id="path861"><svg:path style="color:#000000;clip-rule:nonzero;fill:#1a5fb4;fill-rule:nonzero;stroke-linecap:round;stroke-linejoin:round;-inkscape-stroke:none;shape-rendering:auto" d="m 113.42773,-199.12891 c -8.10584,0.0326 -16.460239,2.2246 -23.39648,6.97852 -11.097985,7.60627 -17.149461,20.36261 -18.074219,32.17773 -2.773163,35.4312 -11.549042,70.470088 -25.830078,102.988285 -15.418235,35.107622 -37.3548274,67.475559 -64.236328,94.849609 -7.434993,7.571225 -13.959229,20.775463 -10.865234,35.113282 3.093995,14.337818 14.962591,24.015511 25.1386715,27.652344 l 76.8144535,27.45312 c 20.613984,7.36724 37.530534,4.53496 54.218754,-10.83789 26.41761,-24.33537 50.20662,-51.492347 70.84375,-80.898434 29.79725,-42.4584519 52.9123,-89.495996 68.35742,-138.996096 7.63094,-24.45641 -6.03868,-49.78595 -29.73242,-57.71679 l -109.27539,-36.57813 c -4.32512,-1.44771 -9.09939,-2.2051 -13.9629,-2.18555 z m 15.85743,66.0918 75.57617,25.29688 C 191.40828,-68.85028 172.55558,-31.783954 148.92969,1.8808594 131.65021,26.502586 111.75987,49.297103 89.84375,69.912109 c 0.297928,0.184026 0.840978,0.782993 3.328125,1.671875 l -3.691406,-1.318359 c -0.994464,0.933275 -1.930573,1.9276 -2.933594,2.851562 2.288536,-2.108153 2.421852,-2.71045 2.664062,-2.949218 L 46.986328,55.078125 c 21.913843,-26.664252 40.17905,-56.2934823 54.076172,-87.9375 14.01105,-31.903435 23.45439,-65.701962 28.22266,-100.177735 z" id="path22199" /></svg:g></svg:svg>
